!! 00000] TT[00
!!!OTL: Da shihua
!!!ARE: Asia, China,Shandong, Leling
!! Ethnic Group: Han
!! III, 384 
!!!SCT: C1170
!!!YEM: Copyright 1995, estate of Helmut Schaffrath.
**kern
*ICvox
*Ivox
!! Mixed meters:  3/4; 4/4
*M3/4
*k[f#]
*G:
{8ff#
=1
8dd
16b
16dd
4b
16b
16dd
16b
16a
4b
=2
8b
16dd
16b
8b
8b
16b
16dd
16b
16a
4b}
=3
{8b
16b
16a
8b
8b
8b
16a
16b
8dd
8a-
=4
4a
4a
4aa
8.dd
16ee
=5
4.gg
[8ee
8ee]
8dd
8.dd
16a
=6
8.b
16a
8g
8a
2g}
=7
{8ff#
=8
8ee
8ee
8dd
16b
16dd
4b
=9
8b
16ee
16dd
8b
8dd
4b}
=10
*M4/4
{8b
16ee
16dd
8b
8b
16b
16dd
16b
16dd
4b
=11
8b
16b
16a
8b
16b
16a
8b
16a
16b
8dd
8a-}
=12
{4a
4aa
4aa
8.dd
16ee
=13
4.gg
4ee
8dd
8dd
8b
=14
2dd
8.dd
16a
8b
8a
=15
*M3/4
8g
8a
2g}
==
!!!AGN: Xiaodiao, Guzi yangge
!!!ONB: ESAC (Essen Associative Code) Database: CHINA_037
!!!AMT: irregular
!!!AIN: vox
!!!EED: Helmut Schaffrath
!!!EEV: 1.0
*-
